src/assets/filled/Like1.svg

<svg width="24" height="24" viewBox="0 0 24 24"  xmlns="http://www.w3.org/2000/svg">
<path d="M8.38989 18.4897V8.32973C8.38989 7.92973 8.50989 7.53973 8.72989 7.20973L11.4599 3.14973C11.8899 2.49973 12.9599 2.03973 13.8699 2.37973C14.8499 2.70973 15.4999 3.80973 15.2899 4.78973L14.7699 8.05973C14.7299 8.35973 14.8099 8.62973 14.9799 8.83973C15.1499 9.02973 15.3999 9.14973 15.6699 9.14973H19.7799C20.5699 9.14973 21.2499 9.46973 21.6499 10.0297C22.0299 10.5697 22.0999 11.2697 21.8499 11.9797L19.3899 19.4697C19.0799 20.7097 17.7299 21.7197 16.3899 21.7197H12.4899C11.8199 21.7197 10.8799 21.4897 10.4499 21.0597L9.16989 20.0697C8.67989 19.6997 8.38989 19.1097 8.38989 18.4897Z" />
<path d="M5.21 6.37988H4.18C2.63 6.37988 2 6.97988 2 8.45988V18.5199C2 19.9999 2.63 20.5999 4.18 20.5999H5.21C6.76 20.5999 7.39 19.9999 7.39 18.5199V8.45988C7.39 6.97988 6.76 6.37988 5.21 6.37988Z" />
</svg>

<?xml version="1.0" encoding="UTF-8"?>
<svg width="24" height="24" viewBox="0 0 24 24" xmlns="http://www.w3.org/2000/svg">
 <path d="m8.3899 18.49v-10.16c0-0.4 0.12-0.79 0.34-1.12l2.73-4.06c0.43-0.65 1.5-1.11 2.41-0.77 0.98 0.33 1.63 1.43 1.42 2.41l-0.52 3.27c-0.04 0.3 0.04 0.57 0.21 0.78 0.17 0.19 0.42 0.31 0.69 0.31h4.11c0.79 0 1.47 0.32 1.87 0.87997 0.38 0.54 0.45 1.24 0.2 1.95l-2.46 7.49c-0.31 1.24-1.66 2.25-3 2.25h-3.9c-0.67 0-1.61-0.23-2.04-0.66l-1.28-0.99c-0.49-0.37-0.78-0.96-0.78-1.58z"/>
 <path d="m5.21 6.3799h-1.03c-1.55 0-2.18 0.6-2.18 2.08v10.06c0 1.48 0.63 2.08 2.18 2.08h1.03c1.55 0 2.18-0.6 2.18-2.08v-10.06c0-1.48-0.63-2.08-2.18-2.08z"/>
</svg>
